!!!SOCIAL_FUNCTION:	songs of games played in a ceremonial manner
!!!PDT:	1932
!!!OTL: No_15_Dancing_Song_from_the_East_God_(c).krn
!!!REG: Wisconsin
!!!LANG: Non-Tone
!!!LING_GROUP: Algonquin
**kern
*staff1
=1-
=
*clefF4
*k[b-]
*M2/4
4c\
8c\L
16.A\L
32G\JJk
=2
4G\
8G\L
8F\J
=3
4G\
8A\L
16.G\L
32F\JJk
=4
4F\
8F\L
8D\J
=5
4F\
8F\L
16.D\L
32C\JJk
=6
4C/
8C/
8r
=7
4G\
8A\L
16.G\L
32F\JJk
=8
4F\
8F\L
8D\J
=9
[4F\
8F\L]
16.D\L
32C\JJk
=10
4C/
8C/L
16AA/Jk
16r
=11
[4C/
8C/L]
16.AA/L
32FF/JJk
=12
4FF/
8FF/
8r
=13
4AA/
8AA/L
16.FF/L
32FF/JJk
=14
4FF/
8FF/
8r
==
*-
